X:1
T:O Holy Night
T:O Holy Night
T:Arr Lunaki Shirayu
C:Arr Lunaki Shirayu
%%score 1 2 3 4
L:1/8
Q:3/8=50
M:12/8
K:D
V:1 treble nm="Violin" snm="Vln."
V:2 treble nm="Violin" snm="Vln."
V:3 alto nm="Viola" snm="Vla."
V:4 bass nm="Violoncello" snm="Vc."
V:1
 F6- | F4 C8 | D8 z B,3 |[M:6/8] B,6 |[M:12/8]!p! D12 | D6 G6 | (F12 | D6) C6 |[M:6/8] D6 | %9
[M:12/8] z6!mf! D3 D2 F | F3- F2 C D2 D B,2 D | F6 F2 F F2 D | F3 C2 D E3 F2 E | B,12 | %14
!mp! c3 (AEC) A,3 (ABc) | d3 (dAF) D3 (DCB,) | A,3 (DEA) c3 (AGE) | %17
 D3 (FDA) D3!f! !tenuto!a!tenuto!b!tenuto!c' | !>!d'3- d'6 c'2 b | c'6- c'3 c'3 | e'6- e'2 g aga | %21
 b6 b2- b z2 a | f'6 e'3- e'2 a | d'6- d'3 c'2 b | a6- a2 a b2 a | a6- a3 d'3 | e'6- e'3 z2 A | %27
!f! f6- f3 gfe |"_rit." f6 a3 b2 c' | d'12 |] %30
V:2
 d6- | d4 A8 | B,8 z G3 |[M:6/8] G6 |[M:12/8]!mp!"^pizz." DFA dAF DFA dAF | DFA dAF G,B,D GDB, | %6
 DFA dAF DFA dAF | DFA dAF A,CE GEC |[M:6/8] DFA dAF |[M:12/8] z6"^arco"!f! F3 F2 A | %10
 A3- A2 A B2 B G2 B | d6 A2 A ^G2 F | c3 A2 B c3 d2 c | F6 z3 z2!mp! C | C3 D3 E3 C3 | %15
 D2 C F2 A, D3 F2 F | C3 D3 A,3 D3 | D2 D A2 D F3!mf! (cde) | f3- f6 e2 d | e6- e3 a3 | %20
 b6- b2 b c'bc' | d'6 d'2- d' z2 f | d'6 c'3- c'2 f | a6- a3 a2 g | f6- f2 e f2 e | f6- f3 a3 | %26
 c'6- c'3 z2 c |!f! a6- a3 e3 |"_rit." d6 c3 d2 e | f12 |] %30
V:3
 F,A,D ADE- | E2 (3d/e/d/ (3c/d/c/AE D C2- C3 | F,B,D ADE- E2 d/c/ AED |[M:6/8] C6 | %4
[M:12/8]!mp!"^pizz." D,A,D FDA, D,A,D FDA, | D,A,D FDA, G,DG BDB, | D,A,D FDA, D,A,D FDA, | %7
 D,A,D FDA, A,EA cAE |[M:6/8] D,A,D FDA, |[M:12/8]!mp! D,A,D FDA, D,A,D FDA, | %10
 D,A,D FDA, G,DG BGD | D,A,D FDA, D,A,D FDA, | F,CF AFC F,CF AFC | %13
 B,FB dBF B,FB d z"^arco"!mf! A, | A,3 B,3 E,3 A,3 | B,2 A, D2 F, B,3 A,2 A, | A,3 B,3 E,3 A,3 | %17
 B,2 A, D2 F, A,6 | z F,B, DB,F, z F,B, DB,F, | z CF AFC z CF AFC | z G,B, EB,G, z G,B, EB,G, | %21
 z F,B, DB,F, z F,B, DB,F, | z F,A, DA,F, z CE AEC | z F,A, DA,F, z B,D GDB, | %24
 z F,A, DA,F, z CE AEC | z F,A, DA,F, z F,A, DA,F, | z CE AEC z CE AEC | B,12 | %28
"_rit." A6 E3- E2 C | A12 |] %30
V:4
 F6- | F4 C8 | D8 z B,3 |[M:6/8] B,6 |[M:12/8] z4 z2!mf! F,3 F,2 F, | A,3- A,2 A, B,2 B, G,2 B, | %6
 D6 A,2 A, F,2 E, | D,3 F,2 G, A,3 G,2 E, |[M:6/8] D,6 |[M:12/8]!p! D,12 | D,6 G,6 | D,12 | F,12 | %13
 B,,12 |"^pizz."!mp! A,,C,E, A,E,C, A,,C,E, A,E,C, | D,F,A, DA,F, D,F,A, DA,F, | %16
 A,,C,E, A,E,C, A,,C,E, A,E,C, | D,F,A, DA,F, D,F,A, D3 |"^arco" B,,6 B,,6 | F,6 F,6 | E,6 E,6 | %21
 B,,6 B,,6 | D,6 A,,6 | D,6 G,,6 | D,6 A,,6 | D,6 D,6 | A,,6 A,,6 | [B,,D,]12 |"_rit." D,6 A,,6 | %29
 D,12 |] %30

